img/icon/twitter.svg

<svg width="34" height="34" viewBox="0 0 34 34" fill="none" xmlns="http://www.w3.org/2000/svg">
<g clip-path="url(#clip0_2_55)">
<path d="M17 34C26.3888 34 34 26.3888 34 17C34 7.61116 26.3888 0 17 0C7.61116 0 0 7.61116 0 17C0 26.3888 7.61116 34 17 34Z" fill="#0075FF"/>
<path d="M25.832 11.7805C25.2078 12.0561 24.5404 12.242 23.8365 12.3283C24.5537 11.8967 25.1049 11.216 25.3639 10.4059C24.6932 10.7977 23.9461 11.0832 23.1559 11.2426C22.5217 10.5653 21.6219 10.1403 20.6191 10.1403C18.7 10.1403 17.1428 11.6975 17.1428 13.6133C17.1428 13.8889 17.176 14.1545 17.2324 14.4069C14.3437 14.2707 11.7805 12.8828 10.0672 10.7844C9.76503 11.2957 9.5957 11.8867 9.5957 12.5342C9.5957 13.7428 10.21 14.8053 11.143 15.4295C10.5719 15.4096 10.0373 15.2535 9.56914 14.9946V15.0377C9.56914 16.7244 10.7644 18.1289 12.3582 18.4477C12.066 18.5274 11.7572 18.5672 11.4418 18.5672C11.2193 18.5672 11.0068 18.5473 10.7943 18.5074C11.2393 19.8887 12.5209 20.8947 14.0482 20.9213C12.8629 21.8543 11.3555 22.4088 9.73847 22.4088C9.46288 22.4088 9.1873 22.3922 8.91171 22.3623C10.459 23.3485 12.2818 23.9229 14.2508 23.9229C20.6424 23.9229 24.1387 18.627 24.1387 14.0416C24.1387 13.8955 24.1387 13.7461 24.1287 13.5967C24.806 13.1086 25.4004 12.4944 25.8652 11.7971L25.832 11.7805Z" fill="#1E1E1E"/>
</g>
<defs>
<clipPath id="clip0_2_55">
<rect width="34" height="34" fill="white"/>
</clipPath>
</defs>
</svg>

<svg width="34" height="34" fill="none" xmlns="http://www.w3.org/2000/svg"><g clip-path="url(#clip0_2_55)"><path d="M17 34c9.389 0 17-7.611 17-17S26.389 0 17 0 0 7.611 0 17s7.611 17 17 17z" fill="#0075FF"/><path d="M25.832 11.78a7.047 7.047 0 01-1.995.548 3.493 3.493 0 001.527-1.922 7.205 7.205 0 01-2.208.837 3.477 3.477 0 00-5.924 3.164 9.844 9.844 0 01-7.165-3.623 3.405 3.405 0 00-.471 1.75c0 1.209.614 2.271 1.547 2.896a3.495 3.495 0 01-1.574-.435v.043a3.474 3.474 0 002.79 3.41c-.293.08-.602.12-.917.12-.223 0-.435-.02-.648-.06a3.482 3.482 0 003.254 2.413 6.964 6.964 0 01-4.31 1.488c-.275 0-.55-.017-.826-.047a9.882 9.882 0 005.339 1.56c6.391 0 9.888-5.295 9.888-9.88 0-.146 0-.296-.01-.445a7.047 7.047 0 001.736-1.8l-.033-.017z" fill="#1E1E1E"/></g><defs><clipPath id="clip0_2_55"><path fill="#fff" d="M0 0h34v34H0z"/></clipPath></defs></svg>
